X:164
T: Hull a szilva a fáról...
M: 2/4
L: 1/8
K: Bb
GGgg | fg2g | 
ccfe | dd2G | 
ccfe | dcBB | 
ccBA | G2 G2 | 

